X: 7600
T: Coen's Memories
R: reel
M: 4/4
K: Ddorian
|:DCA,G, A,DEG|(3ABA dB cAGE|(3CCC EC DECA,|G,CEC DCA,G,|
A,DDC DEFG|Adde cAGE|CDEG (3ABA GE|1 CD (3EDC D2DE:|2 CD (3EDC DEFG||
|:Ad (3ddd edcA|(3ddd ed cAGE|GEGA cBce|dcde cAG2|
Ad (3ddd edcA|dfed cAGE|CD (3EFG cAGE|1 DF (3EDC DEFG:|2 CD (3EDC D3z||

